X:1
T:Anglais e Per Nilsson Dahlberg
C:Per Nilsson Dahlberg
R:Anglais
Z:Patrik Mnsson, 2008-10-23
O:Nym, SKne
M:2/4
L:1/16
K:B
|: F(BA)B b(BA)B | d(BA)B b(BA)B | F(BAB) b(BAB) | e(cA)c B2 z2 :|
|: g2 (3bbb b2a2 | %trill%g2f2 e2d2 | %trill%c2B2 A2g2 | f(ed)c B2 z2 :|
